X:3
T:A Tune For Lottie
T:Thirds
R:Air
C:Danny Hutcheson
M:4/4
L:1/8
K:D
[| {g}de | {g}f>e {g}f<a {e}f2 {g}f/e/d | {gCd}B2 {gf}g>f {g}f<A {g}de/f/ | {gf}g2 {fg}f>e {g}f<a A/B/d | {gef}e4 {A}e3 a | 
{g}a>g {a}f<a {Gdc}d3 e/f/ | {gf}g>a f/e/d {gBd}B3 {g}A/B/ | {gc}d>f {gef}e/d/{A}B {g}e>f d<{e}B| {G}A6 {g}de |
a8 | {f}g4 f4 | B4 {G}A4 | {g}A8 | 
a8 | {g}g8 | {a}f4 {gf}g4 | {ag}a8 || 
[|: {g}B4 {G}A4 | {g}B4 {G}A4 | {g}B4 {G}A4 | ["1" {g}A8 | 
{ag}a8 | {g}g8 | {a}f4 {gf}g4 | {a}f6 {g}dc :|]
["2" {ag}(a8 | a8) | {f}g4 {a}f4 | {d}B4 {G}A4 [M:6/4]| {g}B4 {G}A8 |]

